X:1
T:[ID 6v-14b (= 6-89b)]
T:[ID 6v-14b (= 6-89b)]
T:Bezeichnung standardisiert: Siebensprung; Sieben Spr\"unge 19. In dieser Quelle auch als: Tantz Siebenspr\"unge
T:Urheber unbekannt Datum in der hier transkribierten schriftlichen Quelle: 1775
C:Urheber unbekannt
C:Datum in der hier transkribierten schriftlichen Quelle: 1775
L:1/8
M:4/4
K:D
V:1 treble 
V:1
 F"^a"cde f2 ed | e2 dc d2 F2 | F"^a"cde f2 ed | e2 dc d4 :| c3 d c2 E2 | F2 c2 d4 :| f2 d4 || %7

